X: 10346
T: Don't Be Teasing
R: jig
M: 6/8
K: Dmajor
|:B|AFD DFD|AFA d2 B|AFD DFD|ECA, A,2 B|
AFD DFD|AFA d2A|BdB cec|d2 d d2:|
|:g|faf d2 f|gbg e2 g|faf d2 f ecA A2g|
[1 faf d2 f|gbg e2 g|fdf ece|d2 d d2:|
[2 faf def|gbg efg|faf gec|d2 d d2||

